site/assets/img/competition/auth0-logo.svg

<?xml version="1.0" encoding="UTF-8" standalone="no"?>
<svg width="256px" height="287px" viewBox="0 0 256 287" version="1.1" xmlns="http://www.w3.org/2000/svg" xmlns:xlink="http://www.w3.org/1999/xlink" preserveAspectRatio="xMidYMid">
    <g>
        <path d="M203.240327,231.531381 L174.50906,143.097054 L249.718479,88.4564937 L156.751944,88.4564937 L128.018972,0.0255767952 L128.010446,0.00170511968 L220.990622,0.00170511968 L249.730415,88.4479681 L249.73212,88.446263 L249.755991,88.432622 C266.445703,139.743083 249.256391,198.10251 203.240327,231.531381 L203.240327,231.531381 Z M52.7907966,231.531381 L52.7669249,231.548432 L127.9951,286.202633 L203.240327,231.533086 L128.018972,176.87718 L52.7907966,231.531381 L52.7907966,231.531381 Z M6.29388802,88.4343271 L6.29388802,88.4343271 C-11.2756652,142.522429 9.11927133,199.834911 52.7754505,231.541612 L52.782271,231.51433 L81.5169479,143.085118 L6.32458017,88.4547886 L99.2689489,88.4547886 L128.003626,0.0238716755 L128.010446,2.84217094e-14 L35.0251546,2.84217094e-14 L6.29388802,88.4343271 L6.29388802,88.4343271 Z" fill="#EB5424"></path>
    </g>
</svg>

<svg xmlns="http://www.w3.org/2000/svg" width="256" height="287" preserveAspectRatio="xMidYMid"><path d="M203.24 231.53l-28.73-88.434 75.21-54.64h-92.967L128 .002h92.98l28.74 88.445.024-.014c16.7 51.3-.5 109.67-46.516 143.1h0zm-150.45 0l-.024.017 75.228 54.654 75.245-54.67-75.22-54.656L52.79 231.53zM6.294 88.434h0c-17.57 54.088 2.825 111.4 46.482 143.107l.007-.027 28.735-88.43-75.192-54.63H99.27L128 0H35.025L6.294 88.434z" fill="#eb5424"/></svg>
